svgs/sharp-light/arrows-cross.svg

<svg xmlns="http://www.w3.org/2000/svg" viewBox="0 0 448 512"><!--! Font Awesome Pro 6.6.0 by @fontawesome - https://fontawesome.com License - https://fontawesome.com/license (Commercial License) Copyright 2024 Fonticons, Inc. --><path d="M288 32l-16 0 0 32 16 0 105.4 0L12.7 444.7 1.4 456 24 478.6l11.3-11.3L416 86.6 416 192l0 16 32 0 0-16 0-144 0-16-16 0L288 32zM35.3 44.7L24 33.4 1.4 56 12.7 67.3 173.1 227.7l22.6-22.6L35.3 44.7zm217 262.2L393.4 448 288 448l-16 0 0 32 16 0 144 0 16 0 0-16 0-144 0-16-32 0 0 16 0 105.4L274.9 284.3l-22.6 22.6z"/></svg>

<svg xmlns="http://www.w3.org/2000/svg" viewBox="0 0 448 512"><!--! Font Awesome Pro 6.5.2 by @fontawesome - https://fontawesome.com License - https://fontawesome.com/license (Commercial License) Copyright 2024 Fonticons, Inc. --><path d="M288 32H272V64h16H393.4L12.7 444.7 1.4 456 24 478.6l11.3-11.3L416 86.6V192v16h32V192 48 32H432 288zM35.3 44.7L24 33.4 1.4 56 12.7 67.3 173.1 227.7l22.6-22.6L35.3 44.7zm217 262.2L393.4 448H288 272v32h16H432h16V464 320 304H416v16V425.4L274.9 284.3l-22.6 22.6z"/></svg>
